!!! OTL: Berkowitz234
!!! Chapter: 1
!!! Section: II
!!! Page: 54
!!! Mode: 
!!! Encoder: DJB
**kern
*staff1
*I"Piano
=1-
*clefC3
*k[b-e-]
*B-:
*M6/8
8r
8r
8r
8r
8r
8f\
=2
8b-\L
8g\
8e-\J
4c\
8b-\
=3
8a\L
8f\
8d\J
4B-/
8B-/
=4
8g\L
8e-\
8c\J
4A/
8g\
=5
8f\
8r
[8en\
8e\L]
8g\
8f\J
=6
8b-\L
8g\
8e-\J
8.c/L
16Bn/K
8c/J
=7
8a\L
8f\
8d\J
4B-/
8A/
=8
!!linebreak:original
8g\
8r
[8f\
8f\L]
8e-\
8c\J
=9
4.c\
8B-/
4r
==
*-
